img/icons/flip.svg

<?xml version="1.0" encoding="UTF-8"?>
<svg enable-background="new 0 0 512 512" version="1.1" viewBox="0 0 512 512" xml:space="preserve" xmlns="http://www.w3.org/2000/svg">
		<path d="m256 0c-8.284 0-15 6.716-15 15v70c0 8.284 6.716 15 15 15s15-6.716 15-15v-70c0-8.284-6.716-15-15-15z"/>
		<path d="m256 137c-8.284 0-15 6.716-15 15v70c0 8.284 6.716 15 15 15s15-6.716 15-15v-70c0-8.284-6.716-15-15-15z"/>
		<path d="m256 275c-8.284 0-15 6.716-15 15v70c0 8.284 6.716 15 15 15s15-6.716 15-15v-70c0-8.284-6.716-15-15-15z"/>
		<path d="m256 412c-8.284 0-15 6.716-15 15v70c0 8.284 6.716 15 15 15s15-6.716 15-15v-70c0-8.284-6.716-15-15-15z"/>
		<path d="m179.4 103.5-120-36.842c-4.549-1.398-9.49-0.553-13.317 2.276-3.827 2.828-6.085 7.304-6.085 12.063v350c0 4.759 2.258 9.235 6.085 12.063 3.841 2.839 8.787 3.668 13.317 2.275l120-36.842c6.299-1.933 10.598-7.751 10.598-14.339v-276.32c0-6.588-4.3-12.405-10.598-14.339z"/>
		<path d="m465.92 68.937c-3.826-2.828-8.77-3.673-13.317-2.276l-120 36.842c-6.299 1.933-10.598 7.751-10.598 14.339v276.32c0 6.588 4.3 12.405 10.598 14.339l120 36.842c4.566 1.402 9.505 0.541 13.317-2.276 3.827-2.828 6.085-7.304 6.085-12.063v-350c0-4.759-2.258-9.235-6.085-12.063z"/>
</svg>

<?xml version="1.0" encoding="iso-8859-1"?>
<!-- Generator: Adobe Illustrator 19.0.0, SVG Export Plug-In . SVG Version: 6.00 Build 0)  -->
<svg version="1.1" id="Capa_1" xmlns="http://www.w3.org/2000/svg" xmlns:xlink="http://www.w3.org/1999/xlink" x="0px" y="0px"
	 viewBox="0 0 512 512" style="enable-background:new 0 0 512 512;" xml:space="preserve">
<g>
	<g>
		<path d="M256,0c-8.284,0-15,6.716-15,15v70c0,8.284,6.716,15,15,15s15-6.716,15-15V15C271,6.716,264.284,0,256,0z"/>
	</g>
</g>
<g>
	<g>
		<path d="M256,137c-8.284,0-15,6.716-15,15v70c0,8.284,6.716,15,15,15s15-6.716,15-15v-70C271,143.716,264.284,137,256,137z"/>
	</g>
</g>
<g>
	<g>
		<path d="M256,275c-8.284,0-15,6.716-15,15v70c0,8.284,6.716,15,15,15s15-6.716,15-15v-70C271,281.716,264.284,275,256,275z"/>
	</g>
</g>
<g>
	<g>
		<path d="M256,412c-8.284,0-15,6.716-15,15v70c0,8.284,6.716,15,15,15s15-6.716,15-15v-70C271,418.716,264.284,412,256,412z"/>
	</g>
</g>
<g>
	<g>
		<path d="M179.402,103.503l-120-36.842c-4.549-1.398-9.49-0.553-13.317,2.276C42.258,71.765,40,76.241,40,81v350
			c0,4.759,2.258,9.235,6.085,12.063c3.841,2.839,8.787,3.668,13.317,2.275l120-36.842c6.299-1.933,10.598-7.751,10.598-14.339
			V117.842C190,111.254,185.7,105.437,179.402,103.503z"/>
	</g>
</g>
<g>
	<g>
		<path d="M465.915,68.937c-3.826-2.828-8.77-3.673-13.317-2.276l-120,36.842c-6.299,1.933-10.598,7.751-10.598,14.339v276.316
			c0,6.588,4.3,12.405,10.598,14.339l120,36.842c4.566,1.402,9.505,0.541,13.317-2.276C469.742,440.235,472,435.759,472,431V81
			C472,76.241,469.742,71.765,465.915,68.937z"/>
	</g>
</g>
<g>
</g>
<g>
</g>
<g>
</g>
<g>
</g>
<g>
</g>
<g>
</g>
<g>
</g>
<g>
</g>
<g>
</g>
<g>
</g>
<g>
</g>
<g>
</g>
<g>
</g>
<g>
</g>
<g>
</g>
</svg>
